X:39
T:Are You Sleeping?
O:Old French
%R: air, march
B:"The Everyday Song Book", 1927
F:http://www.library.pitt.edu/happybirthday/pdf/The_Everyday_Song_Book.pdf
Z:2017 John Chambers <jc:trillian.mit.edu>
M:4/4
L:1/8
K:Cmaj
"^1"C2 D2 E2 C2| C2 D2 E2 C2|"^2"E2 F2 G4| E2 F2 G4|
w:1.~Are you sleep-ing, are you sleep-ing, Bro-ther John, Bro-ther John,
w:Fr\`e-re Jac-ques, Fr\`e-re Jac-ques, Dor-mez-vous, dor-mez-vous?
%
"^3"G A G F E2 C2| G A G F E2 C2|"^4"C2 G,2 C4| C2 G,2 C4 |]
w:Morn-ing bells are ring-ing, Morn-ing bells are ring-ing; Ding, ding, dong, ding, ding, dong.
w:Son-nez les ma-ti-nes, son-nez les ma-ti-nes, Bim, bim, bom, bim, bim, bom.


